src/assets/icons/numbers,fancy,09.svg

<svg width="48" height="48" viewBox="0 0 48 48" fill="none" xmlns="http://www.w3.org/2000/svg">
<path d="M23.6804 9.51136C17.1747 9.48295 12.7855 13.7443 12.8139 19.5966C12.8281 25.0227 16.5923 28.9574 21.7486 28.9574C24.9446 28.9574 27.7855 27.4091 29.0781 24.8523H29.277C29.2628 30.6193 27.2599 34.1278 23.4673 34.1278C21.2372 34.1278 19.6321 32.9062 19.1634 30.7898H13.098C13.6662 35.6903 17.6435 39.3977 23.4673 39.3977C30.669 39.3977 35.3139 33.5739 35.2997 23.7017C35.2855 13.1619 29.6605 9.53977 23.6804 9.51136ZM23.723 14.3409C26.5497 14.3409 28.6378 16.642 28.6662 19.4119C28.6804 22.196 26.4787 24.4972 23.6662 24.4972C20.8253 24.4972 18.794 22.2812 18.7798 19.4261C18.7514 16.5852 20.8679 14.3409 23.723 14.3409Z" fill="black"/>
</svg>

<svg xmlns="http://www.w3.org/2000/svg" width="48" height="48" fill="none" viewBox="0 0 48 48">
  <path fill="#000" d="M23.68 9.511c-6.505-.028-10.894 4.233-10.866 10.086.014 5.426 3.778 9.36 8.935 9.36 3.196 0 6.037-1.548 7.33-4.105h.198c-.014 5.767-2.017 9.276-5.81 9.276-2.23 0-3.835-1.222-4.304-3.338h-6.065c.568 4.9 4.545 8.608 10.37 8.608 7.201 0 11.846-5.824 11.832-15.696-.014-10.54-5.64-14.162-11.62-14.19zm.043 4.83c2.827 0 4.915 2.301 4.943 5.07.014 2.785-2.187 5.086-5 5.086-2.84 0-4.872-2.216-4.886-5.07-.029-2.842 2.088-5.086 4.943-5.086z"/>
</svg>
